X:11
T:Nobby Clark
R:jig
C:Paul S. Cranford
O:Cape Breton Island
S:http://www.cranfordpub.com
D:currently unrecorded
B:currently unpublished in book form
Z:psc
H:                                                        copyrights Cranford Publications, SOCAN
L:1/8
Q:300
M:6/8
K:A
B|AEC B,2 C|A,cA BcB|AEA BdB|cBA BcB|
AEC B,2 C|A,cA BcB|AEA Bed|cGB A2:|
|:e|aed cBA|fed c2 B|AEA BdB|[1cBA Bce|
aed cBA|fed c2 B|AEA Bed|cGB A2:|
[2cBA BcB|AEC B,2 C|A,cA BcB|AEA Bed|cGB A2|]
